X:9339
T:Last Night's Fun
M:4/4
L:1/8
R:Reel
K:D
|:AD~D2ADBD|ADFD EFGB|AD~D2A2Bd|egfe dBBd:|
|df~f2af~f2|defd edef|df~f2af~f2|(3efg fe dBAB|
|df~f2af~f2|defde2fg|afbf afeg|fged BedB|


